launcher/android/assets/skins/day/svg/myterie.svg

<svg enable-background="new 0 0 220.00 220.00" height="220" viewBox="0 0 220 220" width="220" xmlns="http://www.w3.org/2000/svg" xmlns:xlink="http://www.w3.org/1999/xlink"><linearGradient id="a" gradientTransform="matrix(-.966395140898 .257061143792 -.257061143792 -.966395140898 2.065211685697 .614896855393)" gradientUnits="objectBoundingBox" x1=".992414" x2="1.98393" y1=".442438" y2=".442438"><stop offset=".00925926" stop-color="#fff"/><stop offset="1" stop-color="#fcfcff" stop-opacity="0"/></linearGradient><linearGradient id="b"><stop offset=".00925926" stop-color="#fff"/><stop offset="1" stop-color="#fff" stop-opacity="0"/></linearGradient><linearGradient id="c" gradientTransform="matrix(-.968599743862 .24862529274 -.24862529274 -.968599743862 2.063126231446 .620166437066)" gradientUnits="objectBoundingBox" x1=".992401" x2="1.9844" xlink:href="#b" y1=".440365" y2=".440365"/><linearGradient id="d" gradientTransform="matrix(-.940434384383 .339975247143 -.339975247143 -.940434384383 2.119009965461 .542379285576)" gradientUnits="objectBoundingBox" x1="1.01199" x2="2.01995" xlink:href="#b" y1=".456821" y2=".456821"/><g stroke-linejoin="round"><path d="m103.389 161.957c10.493 0 19 8.618 19 19.25 0 10.631-8.507 19.25-19 19.25-10.4938 0-19.0004-8.619-19.0004-19.25 0-10.632 8.5065-19.25 19.0004-19.25z" fill="#0025c1" stroke="#000" stroke-width="5"/><path d="m76.8886 99.4567-17-7.5-9.0001-10.9998-4-10-.5-13 4-10.5 6-9.5 6.5-6.5 11-7.5 8.5-3.5 11-2 11.5005-.5 12-1 11.5 1.5 7.5 3.5 10 5 9 6.5 6.5 7 7 12 1 11-1.5 14-4.5 7.5-7.5 8-9 10.0001-12 8.5-12 10-6.5 11.5-3.5 8 .271 3.533-.584 3.154-2.875 1.5-10.8125-.187-4-3v-9l6.5005-10.5 8.5-12.5 11.5-13 4.5-7.0001 4-11.5v-10.5l-2.5-12-6-6-10-4.5-9-1-7.5005.5-9 3-6 5.5v6.5l2 6.5 7.5 5 5 3 1.5 5-1 5.5-3 4-3.5 3.5-6.5 1.5z" fill="#0025c1" stroke="#000" stroke-width="5"/><g stroke-width=".2"><path d="m122.222 23.4567 11.333 7.6667 9.334 7.3335 8.333 10.3333 3.667 9.3333 1.333 12.3334-2 12-3.333 5.6666 4.63 1.5463 9.37-12.5463 1.666-9.6666-.333-13-7.203-11.7871-4.464-5.2129-1.666-2.3334-4.667-3-6.667-5-6.666-3-6-1.3333z" fill="url(#a)"/><path d="m79.0552 69.5402-2.9583-2.0417-2.375 5.7082 4 4.3335 4 4.6667 1 5.3333-.3334 6-.5416 2.0415 4.4167-.75 3.6667-2.0833 2.8333-2.6667-.0833-3.5.3332-3.4165-1-2.8333-4.6666-3-3.4167-2.1667-3-2.1667" fill="url(#c)"/><path d="m104.889 164.79 3.666 4.333 2.334 4.667-.334 6.667-1.333 6.667-2.333 5.666.666 3 3.36-.099 3.833-2.25 3.084-4.167 1.666-4.917s.809-3.712.391-5.233c-.365-1.326-1-5.334-1-5.334l-1.334-4-3.333-3-3-2z" fill="url(#d)"/></g></g></svg>

﻿<?xml version="1.0" encoding="utf-8"?>
<!DOCTYPE svg PUBLIC "-//W3C//DTD SVG 1.1//EN" "http://www.w3.org/Graphics/SVG/1.1/DTD/svg11.dtd">
<svg xmlns="http://www.w3.org/2000/svg" xmlns:xlink="http://www.w3.org/1999/xlink" version="1.1" baseProfile="full" width="220" height="220" viewBox="0 0 220.00 220.00" enable-background="new 0 0 220.00 220.00" xml:space="preserve">
	<path fill="#0025C1" fill-opacity="1" stroke-width="5" stroke-linejoin="round" stroke="#000000" stroke-opacity="1" d="M 103.389,161.957C 113.882,161.957 122.389,170.575 122.389,181.207C 122.389,191.838 113.882,200.457 103.389,200.457C 92.8952,200.457 84.3886,191.838 84.3886,181.207C 84.3886,170.575 92.8951,161.957 103.389,161.957 Z "/>
	<path fill="#0025C1" fill-opacity="1" stroke-width="5" stroke-linejoin="round" stroke="#000000" stroke-opacity="1" d="M 76.8886,99.4567L 59.8886,91.9567L 50.8885,80.9569L 46.8885,70.9569L 46.3885,57.9569L 50.3885,47.4569L 56.3885,37.9569L 62.8885,31.4569L 73.8885,23.9569L 82.3885,20.4569L 93.3885,18.4569L 104.889,17.9569L 116.889,16.9569L 128.389,18.4569L 135.889,21.9569L 145.889,26.9569L 154.889,33.4569L 161.389,40.4569L 168.389,52.4569L 169.389,63.4569L 167.889,77.4569L 163.389,84.9569L 155.889,92.9569L 146.889,102.957L 134.889,111.457L 122.889,121.457L 116.389,132.957L 112.889,140.957L 113.16,144.49L 112.576,147.644L 109.701,149.144L 98.8885,148.957L 94.8885,145.957L 94.8885,136.957L 101.389,126.457L 109.889,113.957L 121.389,100.957L 125.889,93.9569L 129.889,82.4569L 129.889,71.9569L 127.389,59.9569L 121.389,53.9569L 111.389,49.4569L 102.389,48.4569L 94.8885,48.9569L 85.8885,51.9569L 79.8885,57.4569L 79.8885,63.9569L 81.8885,70.4569L 89.3885,75.4569L 94.3885,78.4569L 95.8885,83.4569L 94.8885,88.9569L 91.8885,92.9569L 88.3885,96.4569L 81.8885,97.9569L 76.8886,99.4567 Z "/>
	<linearGradient id="SVGID_Fill1_" gradientUnits="objectBoundingBox" x1="0.992414" y1="0.442438" x2="1.98393" y2="0.442438" gradientTransform="rotate(165.104248 0.992414 0.442438)">
		<stop offset="0.00925926" stop-color="#FFFFFF" stop-opacity="1"/>
		<stop offset="1" stop-color="#FCFCFF" stop-opacity="0"/>
	</linearGradient>
	<path fill="url(#SVGID_Fill1_)" stroke-width="0.2" stroke-linejoin="round" d="M 122.222,23.4567L 133.555,31.1234L 142.889,38.4569L 151.222,48.7902L 154.889,58.1235L 156.222,70.4569L 154.222,82.4569L 150.889,88.1235L 155.519,89.6698L 164.889,77.1235L 166.555,67.4569L 166.222,54.4569L 159.019,42.6698L 154.555,37.4569L 152.889,35.1235L 148.222,32.1235L 141.555,27.1235L 134.889,24.1235L 128.889,22.7902L 122.222,23.4567 Z "/>
	<linearGradient id="SVGID_Fill2_" gradientUnits="objectBoundingBox" x1="0.992401" y1="0.440365" x2="1.9844" y2="0.440365" gradientTransform="rotate(165.603821 0.992401 0.440365)">
		<stop offset="0.00925926" stop-color="#FFFFFF" stop-opacity="1"/>
		<stop offset="1" stop-color="#FFFFFF" stop-opacity="0"/>
	</linearGradient>
	<path fill="url(#SVGID_Fill2_)" stroke-width="0.2" stroke-linejoin="round" d="M 79.0552,69.5402L 76.0969,67.4985L 73.7219,73.2067L 77.7219,77.5402L 81.7219,82.2069L 82.7219,87.5402L 82.3885,93.5402L 81.8469,95.5817L 86.2636,94.8317L 89.9303,92.7484L 92.7636,90.0817L 92.6803,86.5817L 93.0135,83.1652L 92.0135,80.3319L 87.3469,77.3319L 83.9302,75.1652L 80.9302,72.9985"/>
	<linearGradient id="SVGID_Fill3_" gradientUnits="objectBoundingBox" x1="1.01199" y1="0.456821" x2="2.01995" y2="0.456821" gradientTransform="rotate(160.124634 1.011991 0.456821)">
		<stop offset="0.00925926" stop-color="#FFFFFF" stop-opacity="1"/>
		<stop offset="1" stop-color="#FFFFFF" stop-opacity="0"/>
	</linearGradient>
	<path fill="url(#SVGID_Fill3_)" stroke-width="0.2" stroke-linejoin="round" d="M 104.889,164.79L 108.555,169.123L 110.889,173.79L 110.555,180.457L 109.222,187.124L 106.889,192.79L 107.555,195.79L 110.915,195.691L 114.748,193.441L 117.832,189.274L 119.498,184.357C 119.498,184.357 120.307,180.645 119.889,179.124C 119.524,177.798 118.889,173.79 118.889,173.79L 117.555,169.79L 114.222,166.79L 111.222,164.79L 104.889,164.79 Z "/>
</svg>
